logos/bunny-net-icon.svg

<?xml version="1.0" encoding="UTF-8"?>
<svg width="256px" height="288px" viewBox="0 0 256 288" version="1.1" xmlns="http://www.w3.org/2000/svg" preserveAspectRatio="xMidYMid">
    <title>bunny.net</title>
    <defs>
        <linearGradient x1="-33.9398264%" y1="50.04095%" x2="153.690572%" y2="50.04095%" id="bunnyLinearGradient-1">
            <stop stop-color="#FBAA19" offset="0%"></stop>
            <stop stop-color="#EF3E23" offset="100%"></stop>
        </linearGradient>
        <linearGradient x1="32.8908646%" y1="96.6666487%" x2="67.1130842%" y2="3.11111053%" id="bunnyLinearGradient-2">
            <stop stop-color="#F78D1E" offset="0%"></stop>
            <stop stop-color="#F37121" offset="100%"></stop>
        </linearGradient>
        <linearGradient x1="14.4028408%" y1="75.177305%" x2="63.2274953%" y2="12.4480313%" id="bunnyLinearGradient-3">
            <stop stop-color="#FEBE2D" offset="0%"></stop>
            <stop stop-color="#F04E23" offset="100%"></stop>
        </linearGradient>
        <linearGradient x1="69.8803244%" y1="3.21352923%" x2="33.1012862%" y2="81.5809617%" id="bunnyLinearGradient-4">
            <stop stop-color="#EA4425" offset="0%"></stop>
            <stop stop-color="#FDBB27" offset="100%"></stop>
        </linearGradient>
        <linearGradient x1="-40.1271778%" y1="49.9893198%" x2="144.708119%" y2="49.9893198%" id="bunnyLinearGradient-5">
            <stop stop-color="#F47920" offset="0%"></stop>
            <stop stop-color="#E93825" offset="100%"></stop>
        </linearGradient>
        <linearGradient x1="-143.227273%" y1="49.9166667%" x2="243.363636%" y2="49.9166667%" id="bunnyLinearGradient-6">
            <stop stop-color="#FDCA0B" offset="0%"></stop>
            <stop stop-color="#F5841F" offset="100%"></stop>
        </linearGradient>
        <linearGradient x1="39.6769732%" y1="-25.0126839%" x2="63.8868118%" y2="131.608321%" id="bunnyLinearGradient-7">
            <stop stop-color="#E73C25" offset="0%"></stop>
            <stop stop-color="#FAA21B" offset="100%"></stop>
        </linearGradient>
        <linearGradient x1="-562.993864%" y1="49.9979816%" x2="562.904684%" y2="49.9979816%" id="bunnyLinearGradient-8">
            <stop stop-color="#FDBA12" offset="0%"></stop>
            <stop stop-color="#F7921E" offset="100%"></stop>
        </linearGradient>
        <linearGradient x1="1.98261285%" y1="41.5011038%" x2="106.167127%" y2="60.0441501%" id="bunnyLinearGradient-9">
            <stop stop-color="#FEBE2D" offset="0%"></stop>
            <stop stop-color="#F04E23" offset="100%"></stop>
        </linearGradient>
    </defs>
    <g>
        <path d="M141.23638,46.069962 L207.617479,82.1188667 L146.280536,0 C136.366534,13.3046568 134.436174,30.9352824 141.23638,46.069962 L141.23638,46.069962 Z" fill="url(#bunnyLinearGradient-1)"></path>
        <path d="M111.240463,179.773735 C119.580313,179.774065 126.347778,186.521952 126.372336,194.861765 C126.396761,203.201579 119.669044,209.989097 111.329341,210.038679 C102.989637,210.087721 96.1821258,203.380235 96.1079938,195.040715 C96.0721112,191.00408 97.6505655,187.120431 100.492352,184.253383 C103.334139,181.386336 107.203668,179.773735 111.240463,179.773735 L111.240463,179.773735 Z" fill="url(#bunnyLinearGradient-2)"></path>
        <path d="M65.0359902,12.03872 L250.929968,112.921849 C254.031523,114.43055 256,117.577094 256,121.026127 C256,124.475159 254.031523,127.621703 250.929968,129.130405 C236.870575,137.590569 221.473199,143.594864 205.39805,146.885835 L166.726184,226.24723 C166.726184,226.24723 154.485698,254.090973 120.790733,243.397362 C134.914371,229.273724 151.997247,216.495194 151.997247,194.771694 C151.997247,172.225199 133.719702,153.947655 111.173208,153.947655 C88.6267136,153.947655 70.3491687,172.225199 70.3491683,194.771694 C70.3491683,223.15348 98.3274226,235.124945 113.863424,254.830783 C120.860645,264.73573 119.933434,278.194333 111.643996,287.046128 C92.3416904,267.945589 55.0149328,235.730244 39.6806972,214.612042 C31.2971648,203.964881 26.6844407,190.836359 26.5658905,177.285285 C28.0746245,147.746027 47.9159978,122.312506 76.2003898,113.661658 C84.6687861,111.194973 93.4830665,110.127264 102.295492,110.500653 C114.582941,111.431543 126.518745,115.035238 137.26831,121.059754 C153.745888,130.744535 161.749283,128.188829 173.115449,118.638559 C179.840991,113.123615 187.171831,95.166418 175.805665,90.996582 C172.089447,89.7841355 168.290955,88.8401316 164.4395,88.1718544 C143.321298,84.0692738 106.398073,80.1684595 92.8124783,72.4340863 C71.2234888,60.5298771 56.6963183,35.9816492 65.0359902,12.03872 Z" fill="url(#bunnyLinearGradient-3)"></path>
        <path d="M151.66097,194.97346 C160.269664,149.710563 114.334212,106.532584 79.0923728,112.989104 L81.4463125,112.451061 C79.5631607,112.854593 77.7472644,113.325381 75.9986235,113.863424 C47.7142315,122.514272 27.8728582,147.947794 26.3641243,177.487051 C26.5784827,191.07777 31.3109737,204.210432 39.8152081,214.813808 C55.1494436,235.93201 92.4762012,268.147356 111.778506,287.247895 C120.067945,278.3961 120.995156,264.937496 113.997935,255.032549 C98.1256564,235.393967 70.1474021,223.355247 70.1474021,195.040715 C70.1474021,172.494221 88.4249471,154.216676 110.971441,154.216676 C133.517936,154.216676 151.795481,172.494221 151.795481,195.040715 L151.66097,194.97346 Z" fill="url(#bunnyLinearGradient-4)"></path>
        <path d="M65.0359902,12.03872 L206.27237,88.9789194 L206.27237,88.9789194 L210.307695,91.1983482 C213.670466,93.8213096 217.033237,99.0672323 212.661635,108.752013 C205.936093,123.211928 179.033926,137.201055 148.029177,126.238422 C157.713958,129.063149 164.304989,125.834889 172.779172,118.705815 C179.504713,113.19087 186.835554,95.2336734 175.469388,91.0638374 C171.75317,89.8513909 167.954678,88.907387 164.103222,88.2391098 C142.985021,84.1365292 106.061796,80.2357149 92.4762012,72.5013417 C71.2234888,60.5298771 56.6963183,35.9816492 65.0359902,12.03872 Z" fill="url(#bunnyLinearGradient-5)"></path>
        <path d="M65.0359902,12.03872 C79.6304162,65.8430552 168.474825,70.2819129 212.997912,92.7452229 L65.0359902,12.03872 Z" fill="url(#bunnyLinearGradient-6)"></path>
        <path d="M113.661658,255.032549 C98.1256564,235.393967 70.1474021,223.355247 70.1474021,195.040715 C70.2268832,174.504959 85.5487168,157.224696 105.927285,154.687464 C73.4721272,154.79817 47.1894998,181.080798 47.0786951,213.535955 C47.071437,217.512878 47.477146,221.47981 48.2893909,225.372909 C61.1351759,239.90008 79.6976716,257.050212 95.3681842,271.577382 C101.488427,277.294093 107.137883,282.674526 111.778506,287.247895 C115.640104,282.773761 117.993418,277.196405 118.504048,271.30836 L118.504048,271.30836 C118.871553,265.480457 117.15523,259.711703 113.661658,255.032549 L113.661658,255.032549 Z" fill="url(#bunnyLinearGradient-7)"></path>
        <path d="M151.459204,199.81585 C151.67154,198.210249 151.783849,196.592999 151.795481,194.97346 C160.269664,149.710563 114.334212,106.532584 79.0923728,112.989104 C86.6174877,111.170602 94.3578677,110.40109 102.093726,110.70242 C148.298199,112.585571 161.211239,161.951049 151.459204,199.81585 Z" fill="url(#bunnyLinearGradient-8)"></path>
        <path d="M15.1997247,99.8070419 L15.1997247,99.8070419 C23.6051682,99.8440706 30.3994494,106.668497 30.3994494,115.074022 L30.3994494,130.273747 L15.1997247,130.273747 C6.80514855,130.273747 0,123.468598 0,115.074022 L0,115.074022 C0,106.668497 6.79428116,99.8440706 15.1997247,99.8070419 L15.1997247,99.8070419 Z" fill="url(#bunnyLinearGradient-9)"></path>
    </g>
</svg>

<svg preserveAspectRatio="xMidYMid" viewBox="0 0 256 288" xmlns="http://www.w3.org/2000/svg">
  <defs>
    <linearGradient id="bunny-net-icon_svg__a" x1="-33.94%" x2="153.691%" y1="50.041%" y2="50.041%">
      <stop offset="0%" stop-color="#FBAA19"/>
      <stop offset="100%" stop-color="#EF3E23"/>
    </linearGradient>
    <linearGradient id="bunny-net-icon_svg__b" x1="32.891%" x2="67.113%" y1="96.667%" y2="3.111%">
      <stop offset="0%" stop-color="#F78D1E"/>
      <stop offset="100%" stop-color="#F37121"/>
    </linearGradient>
    <linearGradient id="bunny-net-icon_svg__c" x1="14.403%" x2="63.227%" y1="75.177%" y2="12.448%">
      <stop offset="0%" stop-color="#FEBE2D"/>
      <stop offset="100%" stop-color="#F04E23"/>
    </linearGradient>
    <linearGradient id="bunny-net-icon_svg__d" x1="69.88%" x2="33.101%" y1="3.214%" y2="81.581%">
      <stop offset="0%" stop-color="#EA4425"/>
      <stop offset="100%" stop-color="#FDBB27"/>
    </linearGradient>
    <linearGradient id="bunny-net-icon_svg__e" x1="-40.127%" x2="144.708%" y1="49.989%" y2="49.989%">
      <stop offset="0%" stop-color="#F47920"/>
      <stop offset="100%" stop-color="#E93825"/>
    </linearGradient>
    <linearGradient id="bunny-net-icon_svg__f" x1="-143.227%" x2="243.364%" y1="49.917%" y2="49.917%">
      <stop offset="0%" stop-color="#FDCA0B"/>
      <stop offset="100%" stop-color="#F5841F"/>
    </linearGradient>
    <linearGradient id="bunny-net-icon_svg__g" x1="39.677%" x2="63.887%" y1="-25.013%" y2="131.608%">
      <stop offset="0%" stop-color="#E73C25"/>
      <stop offset="100%" stop-color="#FAA21B"/>
    </linearGradient>
    <linearGradient id="bunny-net-icon_svg__h" x1="-562.994%" x2="562.905%" y1="49.998%" y2="49.998%">
      <stop offset="0%" stop-color="#FDBA12"/>
      <stop offset="100%" stop-color="#F7921E"/>
    </linearGradient>
    <linearGradient id="bunny-net-icon_svg__i" x1="1.983%" x2="106.167%" y1="41.501%" y2="60.044%">
      <stop offset="0%" stop-color="#FEBE2D"/>
      <stop offset="100%" stop-color="#F04E23"/>
    </linearGradient>
  </defs>
  <path fill="url(#bunny-net-icon_svg__a)" d="m141.236 46.07 66.381 36.049L146.281 0a45.734 45.734 0 0 0-5.045 46.07Z"/>
  <path fill="url(#bunny-net-icon_svg__b)" d="M111.24 179.774c8.34 0 15.108 6.748 15.132 15.088.025 8.34-6.703 15.127-15.043 15.177-8.34.049-15.147-6.659-15.221-14.998a15.132 15.132 0 0 1 15.132-15.267Z"/>
  <path fill="url(#bunny-net-icon_svg__c)" d="M65.036 12.039 250.93 112.922a9.012 9.012 0 0 1 0 16.208 144.532 144.532 0 0 1-45.532 17.756l-38.672 79.361s-12.24 27.844-45.935 17.15c14.123-14.123 31.206-26.902 31.206-48.625 0-22.547-18.277-40.824-40.824-40.824-22.546 0-40.824 18.277-40.824 40.824 0 28.381 27.978 40.353 43.514 60.059 6.998 9.905 6.07 23.363-2.219 32.215-19.302-19.1-56.63-51.316-71.963-72.434a61.202 61.202 0 0 1-13.115-37.327c1.509-29.539 21.35-54.972 49.634-63.623a81.043 81.043 0 0 1 26.095-3.161 84.607 84.607 0 0 1 34.973 10.559c16.478 9.685 24.481 7.129 35.847-2.421 6.726-5.515 14.057-23.473 2.69-27.642a81.648 81.648 0 0 0-11.365-2.825c-21.119-4.103-58.042-8.004-71.628-15.738C71.223 60.53 56.696 35.982 65.036 12.04Z"/>
  <path fill="url(#bunny-net-icon_svg__d)" d="M151.661 194.973c8.609-45.262-37.327-88.44-72.569-81.984l2.354-.538A64.409 64.409 0 0 0 76 113.863c-28.285 8.651-48.126 34.085-49.635 63.624a61.202 61.202 0 0 0 13.451 37.327c15.334 21.118 52.661 53.333 71.964 72.434 8.289-8.852 9.216-22.31 2.219-32.215-15.872-19.639-43.85-31.678-43.85-59.992 0-22.547 18.277-40.824 40.823-40.824 22.547 0 40.824 18.277 40.824 40.824l-.134-.068Z"/>
  <path fill="url(#bunny-net-icon_svg__e)" d="m65.036 12.039 141.236 76.94 4.036 2.22c3.362 2.622 6.725 7.868 2.354 17.553-6.726 14.46-33.628 28.45-64.633 17.486 9.685 2.825 16.276-.403 24.75-7.532 6.726-5.515 14.057-23.472 2.69-27.642a81.648 81.648 0 0 0-11.366-2.825c-21.118-4.102-58.041-8.003-71.627-15.738-21.253-11.971-35.78-36.52-27.44-60.462Z"/>
  <path fill="url(#bunny-net-icon_svg__f)" d="M65.036 12.039C79.63 65.843 168.475 70.282 212.998 92.745L65.036 12.04Z"/>
  <path fill="url(#bunny-net-icon_svg__g)" d="M113.662 255.033c-15.536-19.639-43.515-31.678-43.515-59.992.08-20.536 15.402-37.816 35.78-40.354-32.455.111-58.738 26.394-58.848 58.849a57.443 57.443 0 0 0 1.21 11.837c12.846 14.527 31.409 31.677 47.08 46.204 6.12 5.717 11.769 11.098 16.41 15.67a28.113 28.113 0 0 0 6.725-15.939 24.615 24.615 0 0 0-4.842-16.275Z"/>
  <path fill="url(#bunny-net-icon_svg__h)" d="M151.46 199.816c.212-1.606.324-3.223.335-4.843 8.475-45.262-37.46-88.44-72.703-81.984a84.002 84.002 0 0 1 23.002-2.287c46.204 1.884 59.117 51.249 49.365 89.114Z"/>
  <path fill="url(#bunny-net-icon_svg__i)" d="M15.2 99.807c8.405.037 15.2 6.861 15.2 15.267v15.2H15.2c-8.395 0-15.2-6.805-15.2-15.2 0-8.406 6.794-15.23 15.2-15.267Z"/>
</svg>
